X: 3
T: Credo III
N: Derived from Isa1040-Credo_III.krn
C: Heinrich Isaac
%%abc-version 2.0
%%abcx-abcm2ps-target-version 5.9.1 (29 Sep 2008)
%%abc-creator hum2abc beta
%%abcx-conversion-date 2019/02/16 20:38:43
%%abc-edited-by Jesse Rodin
%%abc-edited-by Megan K. Eagen 2014/09/23
%%abcx-initial-encoding-date 2014/09/23/
%%humdrum-veritas 391442221
%%humdrum-veritas-data 1482081587
%%linebreak <none>
%%barnumbers 0
L: 1/4
M: 2/1
Q: 1/2=120
%%staves [1 2 3 4]
V: 1 clef=treble
V: 2 clef=treble-8
V: 3 clef=treble-8
V: 4 clef=bass
K: F
[V:1] z4d4 | 
[V:2] d4G4 | 
[V:3] z8 | 
[V:4] z8 | 
[V:1] G4d4 | 
[V:2] z2g4f2 | 
[V:3] z8 | 
[V:4] z8 | 
[V:1] c4B2A2- | 
[V:2] edecd2cB | 
[V:3] z8 | 
[V:4] z8 | 
[V:1] AGG4^F2 | 
[V:2] cBAGA4 | 
[V:3] z8 | 
[V:4] z8 | 
[V:1] G3ABcd2 | 
[V:2] z4z2G2 | 
[V:3] d4G4 | 
[V:4] G,4D4 | 
[V:1] c2B2AGd2- | 
[V:2] A2B2c2d2 | 
[V:3] z2d2c2B2 | 
[V:4] z2G,2A,2B,2 | 
[V:1] dcc4=B2 | 
[V:2] e2f2g4 | 
[V:3] A4G4 | 
[V:4] C4D4 | 
[V:1] c8 | 
[V:2] e4c4 | 
[V:3] z4A4 | 
[V:4] C2C3B,A,G, | 
[V:1] z4A4 | 
[V:2] z2g2f2f2 | 
[V:3] c4d4 | 
[V:4] F,2E,2D,4 | 
[V:1] c4d4 | 
[V:2] e4d4 | 
[V:3] z2e2f3e | 
[V:4] z2A,2D,3E, | 
[V:1] z2e2f2e2 | 
[V:2] z4z2c2 | 
[V:3] d2c2d2e2 | 
[V:4] F,G,E,2D,2z2 | 
[V:1] A2d4^c2 | 
[V:2] d2G2A4 | 
[V:3] f2g2e4 | 
[V:4] z8 | 
[V:1] d8 | 
[V:2] B2G4gf | 
[V:3] d8 | 
[V:4] z2D4B,2 | 
[V:1] z8 | 
[V:2] edcBc4 | 
[V:3] z2e4f2 | 
[V:4] CB,A,G,A,2A,2 | 
[V:1] z8 | 
[V:2] z2e4f2 | 
[V:3] g6f2 | 
[V:4] G,3F,E,2D,2 | 
[V:1] z2e4f2 | 
[V:2] g6f2 | 
[V:3] e4e2d2 | 
[V:4] C,4z4 | 
[V:1] g6f2 | 
[V:2] e4e2d2 | 
[V:3] c4z4 | 
[V:4] z8 | 
[V:1] e4e3d | 
[V:2] c4A2B2 | 
[V:3] z4z2e2 | 
[V:4] z4z2G,2 | 
[V:1] c4z4 | 
[V:2] c2BAc2B2- | 
[V:3] f2edf2e2- | 
[V:4] A,4A,2G,2 | 
[V:1] z4z2e2 | 
[V:2] BAA4G2 | 
[V:3] e2d2d2^c2 | 
[V:4] F,3E,/D,/E,2E,2 | 
[V:1] f3e/d/f2e2- | 
[V:2] A4z2e2 | 
[V:3] d2a4g2 | 
[V:4] D,E,F,G,A,B,CB,/C/ | 
[V:1] e2d2d2^c2 | 
[V:2] f2g2a3g | 
[V:3] f2d2e4 | 
[V:4] D2B,2A,4 | 
[V:1] d8 | 
[V:2] fdg4^f2 | 
[V:3] z4d4 | 
[V:4] D,4z4 | 
[V:1] z8 | 
[V:2] g8 | 
[V:3] G4c3d | 
[V:4] G,4C,4 | 
[V:1] z8 | 
[V:2] z8 | 
[V:3] c3BA2G2 | 
[V:4] F,3G,F,2E,2 | 
[V:1] z8 | 
[V:2] z8 | 
[V:3] F4G4 | 
[V:4] D,3C,B,,4 | 
[V:1] z4d4 | 
[V:2] z8 | 
[V:3] A4z4 | 
[V:4] C,4D,4 | 
[V:1] G4c3d | 
[V:2] g4c4 | 
[V:3] z8 | 
[V:4] z8 | 
[V:1] c3BA2G2 | 
[V:2] f3gf2e2 | 
[V:3] z8 | 
[V:4] z8 | 
[V:1] F4G4 | 
[V:2] d3cB4 | 
[V:3] z8 | 
[V:4] z8 | 
[V:1] A4z4 | 
[V:2] c4defg | 
[V:3] z4z2A2 | 
[V:4] z4z2D,2 | 
[V:1] z8 | 
[V:2] e2d4^c2 | 
[V:3] c2d2e4 | 
[V:4] A,2F,2G,2A,2 | 
[V:1] z4z2A2 | 
[V:2] d2A2B2c2 | 
[V:3] f4e2f2- | 
[V:4] D,2F,2G,2A,2- | 
[V:1] c2d2e4 | 
[V:2] A4z4 | 
[V:3] fed4^c2 | 
[V:4] A,G,F,2E,4 | 
[V:1] f4e2f2- | 
[V:2] z4z2A2 | 
[V:3] d2d2A4 | 
[V:4] D,4z2D,2 | 
[V:1] fed4^c2 | 
[V:2] c2d2e4 | 
[V:3] z8 | 
[V:4] A,2F,2G,2A,2 | 
[V:1] d4z2D2 | 
[V:2] f4e2f2- | 
[V:3] z2d2e2d2- | 
[V:4] D,2B,2C2D2- | 
[V:1] F2G2A4 | 
[V:2] fed4c2 | 
[V:3] d2g4^f2 | 
[V:4] DCB,2A,4 | 
[V:1] B4A2B2- | 
[V:2] d8- | 
[V:3] g2G2A2G2 | 
[V:4] G,4F,2G,2- | 
[V:1] BAG4F2 | 
[V:2] d8 | 
[V:3] B3cA4 | 
[V:4] G,F,G,2D,4 | 
[V:1] G2B2A4 | 
[V:2] z8 | 
[V:3] G4z2A2 | 
[V:4] z2E,2F,4 | 
[V:1] z8 | 
[V:2] z4z2e2 | 
[V:3] B4c2G2 | 
[V:4] G,2D,2E,4 | 
[V:1] z2A2B4 | 
[V:2] f4g2d2 | 
[V:3] A4GABc | 
[V:4] D,4z4 | 
[V:1] c2G2A4 | 
[V:2] e4d4 | 
[V:3] AGg4^f2 | 
[V:4] z4z2D2 | 
[V:1] G2d4c2 | 
[V:2] z4a4 | 
[V:3] g4z4 | 
[V:4] G,2B,2A,4 | 
[V:1] d4z4 | 
[V:2] d2a2g3a | 
[V:3] d4G4 | 
[V:4] z8 | 
[V:1] d4G4 | 
[V:2] g2f2e2g2- | 
[V:3] z2d2c3d | 
[V:4] z8 | 
[V:1] z2d2c3d | 
[V:2] gfd2e2f2- | 
[V:3] c2B2A4 | 
[V:4] z8 | 
[V:1] c3BA4 | 
[V:2] fec2d4 | 
[V:3] z4z2a2 | 
[V:4] A,4D,4 | 
[V:1] z8 | 
[V:2] z2c2B3c | 
[V:3] a2a2d2gf | 
[V:4] z2A,2G,3A, | 
[V:1] z4z2G2 | 
[V:2] B2A4G2 | 
[V:3] edd4^c2 | 
[V:4] G,2F,2E,2E,2 | 
[V:1] FGABc2d2 | 
[V:2] A2f2e2d2 | 
[V:3] d4z4 | 
[V:4] D,2D2C2B,2 | 
[V:1] d2^c2d3=c | 
[V:2] e4d4 | 
[V:3] z4z2G2 | 
[V:4] A,4z4 | 
[V:1] A4z4 | 
[V:2] z8 | 
[V:3] FGABc2d2 | 
[V:4] z2A,2A,2F,2 | 
[V:1] z2e2f3e | 
[V:2] z2a2a2f2 | 
[V:3] d2^c2d4 | 
[V:4] G,2A,2D,4 | 
[V:1] d2c2d2A2 | 
[V:2] g2a2d3c | 
[V:3] z2e2f3e | 
[V:4] z2A,2F,2D,2 | 
[V:1] B2G2G2^F2 | 
[V:2] B2c2A4 | 
[V:3] d2c2d4 | 
[V:4] G,2E,2D,4 | 
[V:1] G8- | 
[V:2] G2c4=B2 | 
[V:3] z8 | 
[V:4] E,2C,2G,4 | 
[V:1] G8 | 
[V:2] c3de4 | 
[V:3] z2c2c3B | 
[V:4] C,4z2C2 | 
[V:1] z2c2c3B | 
[V:2] c8 | 
[V:3] A3GF4 | 
[V:4] C3B,A,3G, | 
[V:1] A3GF2ED | 
[V:2] z4z2g2 | 
[V:3] A4B2c2 | 
[V:4] F,3E,D,2C,2 | 
[V:1] EDG4^F2 | 
[V:2] e2c2d4 | 
[V:3] G4A4 | 
[V:4] E,4D,4 | 
[V:1] G4A2B2 | 
[V:2] z8 | 
[V:3] G4d2f2 | 
[V:4] z4z2D2 | 
[V:1] c2A4G2 | 
[V:2] z8 | 
[V:3] e2d2c3B | 
[V:4] C2D2E4 | 
[V:1] A4z4 | 
[V:2] z2d2c2d2 | 
[V:3] A4z4 | 
[V:4] F3E/F/EDD2- | 
[V:1] z4z2d2 | 
[V:2] e4f3e/f/ | 
[V:3] z8 | 
[V:4] D2^C2D2D,2 | 
[V:1] c2d2e4 | 
[V:2] edd4^c2 | 
[V:3] z8 | 
[V:4] A,2F,2G,2A,2 | 
[V:1] f3e/f/edd2- | 
[V:2] d2a4g2 | 
[V:3] z2d2c2d2 | 
[V:4] D,E,F,G,A,2B,2 | 
[V:1] d2^c2d4 | 
[V:2] a2a2b3a/b/ | 
[V:3] e4f3e/f/ | 
[V:4] A,4D3D | 
[V:1] z4z2c2 | 
[V:2] agg4^f2 | 
[V:3] edd4c2 | 
[V:4] C2B,2A,4 | 
[V:1] B2d3cA2 | 
[V:2] g4z4 | 
[V:3] d4z2d2- | 
[V:4] G,4F,4 | 
[V:1] B4A4 | 
[V:2] z8 | 
[V:3] d2d2c3B | 
[V:4] G,4A,4 | 
[V:1] z8 | 
[V:2] z8 | 
[V:3] A2G2F2G2 | 
[V:4] z2D4D2 | 
[V:1] z4z2d2- | 
[V:2] z8 | 
[V:3] A4z4 | 
[V:4] C3B,A,2G,2 | 
[V:1] d2d2c3B | 
[V:2] z2g2e2f2- | 
[V:3] z2B2A2c2- | 
[V:4] F,2G,2A,3G, | 
[V:1] A2G2FGAB | 
[V:2] fec2d4 | 
[V:3] cBG2A4 | 
[V:4] F,2E,2D,4 | 
[V:1] c2A4G2 | 
[V:2] c2d2B4 | 
[V:3] z8 | 
[V:4] z4z2G,2 | 
[V:1] A2c2c2c2 | 
[V:2] A4z4 | 
[V:3] A4c4 | 
[V:4] F,4E,2E,2 | 
[V:1] B3A/G/B2A2- | 
[V:2] z4z2A2 | 
[V:3] d4d2c2- | 
[V:4] D,2G,4A,2 | 
[V:1] AGG4^F2 | 
[V:2] c4d4 | 
[V:3] cBG2A2A2 | 
[V:4] F,2E,2D,4 | 
[V:1] GABcd2e2- | 
[V:2] Bcdef2g2- | 
[V:3] G4z4 | 
[V:4] z2D4C2- | 
[V:1] edg4^f2 | 
[V:2] g2b2a4 | 
[V:3] z8 | 
[V:4] CB,G,2D4 | 
[V:1] g3fe2d2 | 
[V:2] g8 | 
[V:3] z8 | 
[V:4] G,4z4 | 
[V:1] c2BAB4 | 
[V:2] z2g3fed | 
[V:3] z8 | 
[V:4] E,4G,4 | 
[V:1] A2c3BAG | 
[V:2] c3ded/e/f2- | 
[V:3] z8 | 
[V:4] A,4A,2D,2 | 
[V:1] F2A2G4 | 
[V:2] f2F2G4 | 
[V:3] A4c4 | 
[V:4] F,4E,4 | 
[V:1] F2f3edc | 
[V:2] A3GA2B2 | 
[V:3] d4d2G2 | 
[V:4] D,6G,2- | 
[V:1] B3AG2A2 | 
[V:2] G2g3fe2 | 
[V:3] B4c4 | 
[V:4] G,4C,4 | 
[V:1] F2G4^F2 | 
[V:2] d2c2d4 | 
[V:3] A2G2A4 | 
[V:4] D,2E,2D,4 | 
[V:1] G8 ||  
[V:2] d8 ||  
[V:3] G8 ||  
[V:4] G,8 ||  
[V:1]  [K:F] [K:clef=treble][M:2/1]d4c4 | 
[V:2]  [K:F] [K:clef=treble-8][M:2/1]z8 | 
[V:3]  [K:F] [K:clef=treble-8][M:2/1]z8 | 
[V:4]  [K:F] [K:clef=bass][M:2/1]z8 | 
[V:1] d4d2f2- | 
[V:2] z8 | 
[V:3] z8 | 
[V:4] z8 | 
[V:1] f2ede2e2 | 
[V:2] d4c4 | 
[V:3] z8 | 
[V:4] z8 | 
[V:1] d6cB | 
[V:2] d4d2f2- | 
[V:3] z8 | 
[V:4] z8 | 
[V:1] A2B2c4 | 
[V:2] f2ede2e2 | 
[V:3] d4c4 | 
[V:4] z8 | 
[V:1] F8 | 
[V:2] d6cB | 
[V:3] d4d2f2- | 
[V:4] z8 | 
[V:1] z4G4 | 
[V:2] A3Bc4 | 
[V:3] f2ede2e2 | 
[V:4] D,4C,4 | 
[V:1] F2D2F3G | 
[V:2] A4z2A2- | 
[V:3] d6cB | 
[V:4] D,4D,2F,2- | 
[V:1] A2B2G4 | 
[V:2] A2GFG4 | 
[V:3] A2d4^c2 | 
[V:4] F,2E,D,E,2E,2 | 
[V:1] F8- | 
[V:2] A4z2a2 | 
[V:3] d8- | 
[V:4] D,8- | 
[V:1] F8 | 
[V:2] a2a2a4 | 
[V:3] d8 | 
[V:4] D,8 | 
[V:1] z2d2d2d2 | 
[V:2] d3ef2g2- | 
[V:3] z8 | 
[V:4] z8 | 
[V:1] d4G3A | 
[V:2] g2f2g3f/e/ | 
[V:3] z8 | 
[V:4] z8 | 
[V:1] B2c4=B2 | 
[V:2] d2c2d4 | 
[V:3] z8 | 
[V:4] z8 | 
[V:1] c4A2c2- | 
[V:2] c2f4ed | 
[V:3] z8 | 
[V:4] z2A,2A,2A,2 | 
[V:1] cBAGF4 | 
[V:2] e4d4 | 
[V:3] z4z2d2 | 
[V:4] A,4D,3E, | 
[V:1] z8 | 
[V:2] z8 | 
[V:3] d2d2d4 | 
[V:4] F,2G,4F,2 | 
[V:1] z2d2d2d2 | 
[V:2] z2d2g4 | 
[V:3] G3AB2c2- | 
[V:4] B,3A,G,2F,E, | 
[V:1] d4G3A | 
[V:2] f4e2g2- | 
[V:3] c2=B2c2e2 | 
[V:4] D,4C,2C2 | 
[V:1] B2c4=B2 | 
[V:2] g2f2g4 | 
[V:3] d2c2d4 | 
[V:4] B,2A,2G,4 | 
[V:1] c8 | 
[V:2] z2g4a2 | 
[V:3] c8 | 
[V:4] C,8 | 
[V:1] z2c4d2 | 
[V:2] gfedf4 | 
[V:3] z8 | 
[V:4] z8 | 
[V:1] cBAGB2A2- | 
[V:2] edcBd4 | 
[V:3] z8 | 
[V:4] z8 | 
[V:1] AGG4^F2 | 
[V:2] cBAGA4 | 
[V:3] z8 | 
[V:4] z8 | 
[V:1] G8 | 
[V:2] G4z4 | 
[V:3] z8 | 
[V:4] z8 | 
[V:1] z8 | 
[V:2] z8 | 
[V:3] z2GABcde | 
[V:4] G,8 | 
[V:1] z8 | 
[V:2] z8 | 
[V:3] f3edce2- | 
[V:4] F,4G,4 | 
[V:1] z8 | 
[V:2] z4g4 | 
[V:3] edd4^c2 | 
[V:4] F,4E,4 | 
[V:1] z4d4 | 
[V:2] b8 | 
[V:3] d8- | 
[V:4] D,8- | 
[V:1] f8 | 
[V:2] a8 | 
[V:3] d8 | 
[V:4] D,8 | 
[V:1] e4d3e | 
[V:2] g4b4 | 
[V:3] z8 | 
[V:4] z8 | 
[V:1] f2g4^f2 | 
[V:2] a2g2a4 | 
[V:3] z8 | 
[V:4] z8 | 
[V:1] g2G3ABc | 
[V:2] g4d2g2 | 
[V:3] z8 | 
[V:4] z4G,4 | 
[V:1] d8 | 
[V:2] f8 | 
[V:3] z4d4 | 
[V:4] B,8 | 
[V:1] z8 | 
[V:2] z8 | 
[V:3] f8 | 
[V:4] A,2D,E,F,G,A,B, | 
[V:1] z8 | 
[V:2] z8 | 
[V:3] e4d3e | 
[V:4] CDED/E/F2D2- | 
[V:1] z8 | 
[V:2] z8 | 
[V:3] f2g4^f2 | 
[V:4] D2CB,A,4 | 
[V:1] g6f2 | 
[V:2] z2d4d2 | 
[V:3] g8 | 
[V:4] G,8 | 
[V:1] e4d4 | 
[V:2] e3fg4 | 
[V:3] z8 | 
[V:4] C6B,2 | 
[V:1] c2A2B2G2 | 
[V:2] c4d4 | 
[V:3] f6e2 | 
[V:4] A,4G,4 | 
[V:1] A2B2cdef | 
[V:2] z2g2e2c2 | 
[V:3] d4c4 | 
[V:4] F,2G,2A,4 | 
[V:1] d2c4=B2 | 
[V:2] g4g4 | 
[V:3] B2c2d4 | 
[V:4] G,8 | 
[V:1] !fermata!c8 | 
[V:2] !fermata!g8 | 
[V:3] !fermata!c8 | 
[V:4] !fermata!C,8 | 
[V:1] (3:2:2B8A4 | 
[V:2] (3:2:2g8f4 | 
[V:3] (3:2:2d8c4 | 
[V:4] (3:2:2G,8A,4 | 
[V:1] (3B4A4G4 | 
[V:2] (3g4f4e4 | 
[V:3] (3d4c4B4 | 
[V:4] (3:2:4G,4A,2F,2G,4 | 
[V:1] !fermata!F8 | 
[V:2] !fermata!d8 | 
[V:3] !fermata!A8 | 
[V:4] !fermata!D,8 | 
[V:1] z8 | 
[V:2] G4F4 | 
[V:3] z8 | 
[V:4] z8 | 
[V:1] z8 | 
[V:2] G4A2B2- | 
[V:3] z8 | 
[V:4] G,4F,2G,2- | 
[V:1] z4d4 | 
[V:2] BAA4G2 | 
[V:3] z8 | 
[V:4] G,2A,2B,4 | 
[V:1] c4d4 | 
[V:2] A6GF | 
[V:3] z4d4 | 
[V:4] A,4D,4 | 
[V:1] e2f3ee2- | 
[V:2] E2D2B,2C2 | 
[V:3] c2d4e2 | 
[V:4] z2D,4C,2 | 
[V:1] e2d2e4 | 
[V:2] A,4z2A2- | 
[V:3] f4c4 | 
[V:4] D,4A,4 | 
[V:1] c3dedf2 | 
[V:2] A2A2A2A2 | 
[V:3] z2f2e2A2 | 
[V:4] z2A,4A,2 | 
[V:1] e2d4^c2 | 
[V:2] A4A4 | 
[V:3] c2d2e4 | 
[V:4] A,2A,2A,4 | 
[V:1] d4z2A2- | 
[V:2] z2A3GF2 | 
[V:3] d8 | 
[V:4] D,4z4 | 
[V:1] A2A2A2A2 | 
[V:2] E6A,2 | 
[V:3] c3dedf2 | 
[V:4] z2A,4A,2 | 
[V:1] A4A4 | 
[V:2] C2D2E4 | 
[V:3] e2d4^c2 | 
[V:4] A,2A,2A,4 | 
[V:1] F3GA2B2 | 
[V:2] D6F2- | 
[V:3] d2f3edc | 
[V:4] D,8 | 
[V:1] A2G4^F2 | 
[V:2] FEDCD4 | 
[V:3] d2B2A4 | 
[V:4] z4D,4 | 
[V:1] G4z4 | 
[V:2] z4A4 | 
[V:3] G4z4 | 
[V:4] E,2G,4F,2 | 
[V:1] d4G4 | 
[V:2] D4E2G2- | 
[V:3] z8 | 
[V:4] G,4z4 | 
[V:1] A2c4B2 | 
[V:2] G2F2G4 | 
[V:3] z8 | 
[V:4] z8 | 
[V:1] c4F4 | 
[V:2] C4D4 | 
[V:3] z8 | 
[V:4] z8 | 
[V:1] G4F4 | 
[V:2] C4z4 | 
[V:3] z8 | 
[V:4] z4A,4 | 
[V:1] z8 | 
[V:2] z2F2G2D2 | 
[V:3] d4G4 | 
[V:4] D,4E,2G,2- | 
[V:1] z4z2d2 | 
[V:2] E2F2D4 | 
[V:3] A2c4=B2 | 
[V:4] G,2F,2G,4 | 
[V:1] e2c4B2 | 
[V:2] C2G4F2- | 
[V:3] c4F4 | 
[V:4] C,4D,4 | 
[V:1] c4A4 | 
[V:2] F2E2F4 | 
[V:3] G4F3G | 
[V:4] C,4z4 | 
[V:1] F4z4 | 
[V:2] z2A4G2- | 
[V:3] ABc3BG2 | 
[V:4] F,4E,4 | 
[V:1] z8 | 
[V:2] G2F2G2E2- | 
[V:3] A4G4 | 
[V:4] D,4G,4 | 
[V:1] z8 | 
[V:2] E2D4^C2 | 
[V:3] z8 | 
[V:4] F,2G,2E,4 | 
[V:1] B4A4 | 
[V:2] D4z4 | 
[V:3] z8 | 
[V:4] D,8 | 
[V:1] G4c4 | 
[V:2] z2G4F2 | 
[V:3] B4A4 | 
[V:4] z8 | 
[V:1] B3AGFA2- | 
[V:2] G3FEDF2 | 
[V:3] G4c4 | 
[V:4] z2G,4F,2 | 
[V:1] AGG4^F2 | 
[V:2] D2E2D4 | 
[V:3] B2c2A4 | 
[V:4] G,2C,2D,4 | 
[V:1] G4z4 | 
[V:2] z2D2E2F2 | 
[V:3] G4z2c2 | 
[V:4] B,4A,4 | 
[V:1] z8 | 
[V:2] G3FG2A2 | 
[V:3] d4e4 | 
[V:4] G,4C4 | 
[V:1] z8 | 
[V:2] B4G2A2- | 
[V:3] f4d2e2- | 
[V:4] B,3A,B,2C2- | 
[V:1] z4c4 | 
[V:2] AGG4^F2 | 
[V:3] edcBc2c2 | 
[V:4] CB,A,G,A,4 | 
[V:1] B8 ||  
[V:2] G8 ||  
[V:3] d8 ||  
[V:4] G,8 ||  
[V:1]  [K:F] [K:clef=treble][M:2/1]z8 | 
[V:2]  [K:F] [K:clef=treble-8][M:2/1]z8 | 
[V:3]  [K:F] [K:clef=treble-8][M:2/1]z8 | 
[V:4]  [K:F] [K:clef=bass][M:2/1]G,8 | 
[V:1] z8 | 
[V:2] z8 | 
[V:3] z8 | 
[V:4] F,4D,3E, | 
[V:1] z8 | 
[V:2] z8 | 
[V:3] z8 | 
[V:4] F,2G,4F,2 | 
[V:1] z8 | 
[V:2] g8 | 
[V:3] z8 | 
[V:4] G,2C,D,E,F,G,A, | 
[V:1] z8 | 
[V:2] f4d3e | 
[V:3] z8 | 
[V:4] B,CDEFEDC | 
[V:1] z8 | 
[V:2] f2g4^f2 | 
[V:3] z8 | 
[V:4] B,A,B,CA,4 | 
[V:1] g8 | 
[V:2] g2GABcde | 
[V:3] z8 | 
[V:4] z2G,3A,B,C | 
[V:1] f4d3e | 
[V:2] fgag/a/b4 | 
[V:3] z8 | 
[V:4] D4z2G,2 | 
[V:1] f2g4^f2 | 
[V:2] a2g2a4 | 
[V:3] z8 | 
[V:4] D2G,2D4 | 
[V:1] g2GABcde | 
[V:2] g4GABc | 
[V:3] g8 | 
[V:4] G,8 | 
[V:1] f2d4cB | 
[V:2] defga2f2- | 
[V:3] f4d3e | 
[V:4] D,8- | 
[V:1] AGB2A4 | 
[V:2] fed6 | 
[V:3] f2g4^f2 | 
[V:4] D,8 | 
[V:1] G4A3B | 
[V:2] d4z2d2 | 
[V:3] g4z4 | 
[V:4] G,4z4 | 
[V:1] c2B4A2- | 
[V:2] c2d2A4 | 
[V:3] z8 | 
[V:4] z8 | 
[V:1] A2G2A4 | 
[V:2] B4A4 | 
[V:3] d3ef2e2- | 
[V:4] z2G,2F,2A,2- | 
[V:1] z8 | 
[V:2] z8 | 
[V:3] e2d4^c2 | 
[V:4] A,D,F,2E,4 | 
[V:1] d3ef2e2- | 
[V:2] z2a2f2g2 | 
[V:3] d4z4 | 
[V:4] D,4z4 | 
[V:1] e2d4^c2 | 
[V:2] d4e4 | 
[V:3] z8 | 
[V:4] z8 | 
[V:1] d4z4 | 
[V:2] defga2b2- | 
[V:3] z2d2e2f2- | 
[V:4] z2D2C2D2 | 
[V:1] z2c2d4 | 
[V:2] baa4g2 | 
[V:3] fee4d2 | 
[V:4] A,4B,4 | 
[V:1] cBAGB2A2- | 
[V:2] agfed2cB | 
[V:3] e4z4 | 
[V:4] A,4z4 | 
[V:1] A2G4^F2 | 
[V:2] AGB2A4 | 
[V:3] z4z2c2 | 
[V:4] z8 | 
[V:1] G4z4 | 
[V:2] G4z2c2 | 
[V:3] d4cBAG | 
[V:4] z2G,2A,4 | 
[V:1] z8 | 
[V:2] d4G2G2 | 
[V:3] B2A2G2g2- | 
[V:4] D,2D,2E,4 | 
[V:1] z4z2c2 | 
[V:2] A4G2g2 | 
[V:3] g2f2g4 | 
[V:4] D,3F,E,4 | 
[V:1] d4cBAG | 
[V:2] f2g2e4 | 
[V:3] z4z2c2 | 
[V:4] D,2G,2A,4 | 
[V:1] B2A3GG2- | 
[V:2] d4z4 | 
[V:3] d4G2G2 | 
[V:4] D,2D,2E,4 | 
[V:1] G2^F2G2G2 | 
[V:2] z2d2e4 | 
[V:3] A4G4 | 
[V:4] D,4z4 | 
[V:1] A4B4 | 
[V:2] f4g4 | 
[V:3] z8 | 
[V:4] z8 | 
[V:1] c4z2B2 | 
[V:2] z2f2g4 | 
[V:3] z8 | 
[V:4] z8 | 
[V:1] c4d4 | 
[V:2] a4z4 | 
[V:3] z4z2d2 | 
[V:4] z2A,2B,4 | 
[V:1] z8 | 
[V:2] z8 | 
[V:3] e4f4 | 
[V:4] C4D4 | 
[V:1] z8 | 
[V:2] z8 | 
[V:3] g4z2f2 | 
[V:4] z2C2D4 | 
[V:1] z8 | 
[V:2] z4z2d2 | 
[V:3] g4a2d2- | 
[V:4] E4F3E | 
[V:1] z8 | 
[V:2] d4e4 | 
[V:3] dcB2A4 | 
[V:4] F2D4^C2 | 
[V:1] z4z2d2 | 
[V:2] f3ef2g2 | 
[V:3] a4z4 | 
[V:4] D6G,2 | 
[V:1] d4e4 | 
[V:2] fed4^c2 | 
[V:3] z8 | 
[V:4] D2B,2A,4 | 
[V:1] f3ef2g2 | 
[V:2] d6G2 | 
[V:3] z4z2d2 | 
[V:4] D,4z4 | 
[V:1] fed4^c2 | 
[V:2] d2B2A4 | 
[V:3] d4e4 | 
[V:4] z8 | 
[V:1] d4z4 | 
[V:2] z2d4c2 | 
[V:3] f3ef2g2 | 
[V:4] z2D,4E,2 | 
[V:1] z2G4GF | 
[V:2] A2B2G2c2 | 
[V:3] fed4c2 | 
[V:4] F,2G,2E,4 | 
[V:1] F2G4^F2 | 
[V:2] B2AGA4 | 
[V:3] d8- | 
[V:4] D,8 | 
[V:1] G4z2d2- | 
[V:2] G4g4 | 
[V:3] d8 | 
[V:4] G,8 | 
[V:1] d2c2B2A2 | 
[V:2] f2e2d2c2 | 
[V:3] z8 | 
[V:4] z8 | 
[V:1] G2A2B2c2 | 
[V:2] B2c2d2e2 | 
[V:3] z8 | 
[V:4] z8 | 
[V:1] A2d4^c2 | 
[V:2] f2g2e2e2 | 
[V:3] z8 | 
[V:4] z4A,4 | 
[V:1] d8 | 
[V:2] d8 | 
[V:3] z8 | 
[V:4] z2D,3E,F,2 | 
[V:1] d4c2d2- | 
[V:2] z8 | 
[V:3] z8 | 
[V:4] G,A,B,CA,G,B,2- | 
[V:1] dAc2B4 | 
[V:2] z8 | 
[V:3] z8 | 
[V:4] B,A,A,4G,2 | 
[V:1] A8 | 
[V:2] z2ABcdef | 
[V:3] z8 | 
[V:4] A,8 | 
[V:1] z8 | 
[V:2] gfedf2e2- | 
[V:3] z8 | 
[V:4] G,4F,2G,2- | 
[V:1] z8 | 
[V:2] edd4^c2 | 
[V:3] z8 | 
[V:4] G,D,F,2E,4 | 
[V:1] z2ABcdef | 
[V:2] d4z4 | 
[V:3] z8 | 
[V:4] D,E,F,G,A,B,CD | 
[V:1] gfedf2e2- | 
[V:2] z2c2d2e2- | 
[V:3] g4f2g2- | 
[V:4] E4D2C2- | 
[V:1] edd4^c2 | 
[V:2] e2a6 | 
[V:3] g2f2e4 | 
[V:4] CB,D2A,4 | 
[V:1] d8 | 
[V:2] f2d3cA2 | 
[V:3] d8 | 
[V:4] D,8 | 
[V:1] z8 | 
[V:2] B4c3B | 
[V:3] G4FGAB | 
[V:4] z2G,2A,3G, | 
[V:1] z8 | 
[V:2] A2F2G4 | 
[V:3] c2d2d2^c2 | 
[V:4] F,2D,2E,2E,2 | 
[V:1] z8 | 
[V:2] A4B4 | 
[V:3] d4z2d2 | 
[V:4] D,4z4 | 
[V:1] z8 | 
[V:2] A8- | 
[V:3] c2d2e4 | 
[V:4] z2D,4C,2 | 
[V:1] z8 | 
[V:2] A8 | 
[V:3] f2d4c2 | 
[V:4] D,3E,F,E,F,2- | 
[V:1] z8 | 
[V:2] z2d4c2 | 
[V:3] d4z4 | 
[V:4] F,2E,D,E,4 | 
[V:1] z8 | 
[V:2] d3efef2- | 
[V:3] z2f4d2 | 
[V:4] D,4z2D2- | 
[V:1] z2d4c2 | 
[V:2] f2ede4 | 
[V:3] f2g2a4 | 
[V:4] D2CB,A,4 | 
[V:1] d3efef2- | 
[V:2] d8 | 
[V:3] f2a3gfe | 
[V:4] D,8 | 
[V:1] f2ede4 | 
[V:2] z4a4 | 
[V:3] d4z4 | 
[V:4] z2D4C2 | 
[V:1] z2d2d2cB | 
[V:2] a4a4 | 
[V:3] z8 | 
[V:4] D3EFEF2- | 
[V:1] A2d4c2 | 
[V:2] a4g4 | 
[V:3] z8 | 
[V:4] F2EDE4 | 
[V:1] d2f2e4 | 
[V:2] a8 | 
[V:3] z8 | 
[V:4] D2D,2A,4 | 
[V:1] d4z4 | 
[V:2] z8 | 
[V:3] d4G4 | 
[V:4] D,4E,2G,2- | 
[V:1] z4d4 | 
[V:2] a4d4 | 
[V:3] A2c4=B2 | 
[V:4] G,2F,2G,4 | 
[V:1] G4A2c2- | 
[V:2] e2g4f2 | 
[V:3] c4z4 | 
[V:4] z8 | 
[V:1] c2B2c4 | 
[V:2] g4z4 | 
[V:3] z4c4 | 
[V:4] G,4A,4 | 
[V:1] z8 | 
[V:2] z4g4 | 
[V:3] d4c2B2 | 
[V:4] G,2F,2E,4 | 
[V:1] c4d4 | 
[V:2] a4g2f2 | 
[V:3] A4z4 | 
[V:4] z8 | 
[V:1] c2B2A4 | 
[V:2] e4z2a2- | 
[V:3] z8 | 
[V:4] z4C4- | 
[V:1] z8 | 
[V:2] a2gfg4 | 
[V:3] z8 | 
[V:4] C4C4 | 
[V:1] z8 | 
[V:2] f3gagb2- | 
[V:3] z8 | 
[V:4] D4C2D2- | 
[V:1] z8 | 
[V:2] b2a4g2 | 
[V:3] z8 | 
[V:4] DA,C2B,2B,2 | 
[V:1] c4A2c2- | 
[V:2] a8 | 
[V:3] z4c4- | 
[V:4] A,4z2A,2 | 
[V:1] c2BAG4 | 
[V:2] z8 | 
[V:3] c4c4 | 
[V:4] F,3G,E,4 | 
[V:1] FGABc2B2- | 
[V:2] z4z2g2- | 
[V:3] d4c2d2- | 
[V:4] D,4z2G,2- | 
[V:1] BAA4G2 | 
[V:2] gef2d4 | 
[V:3] dAc2B2B2 | 
[V:4] G,A,F,2G,4 | 
[V:1] A8 | 
[V:2] z4z2d2- | 
[V:3] A8 | 
[V:4] D,8 | 
[V:1] z8 | 
[V:2] d2e4f2- | 
[V:3] z8 | 
[V:4] G,4A,4 | 
[V:1] z4z2G2 | 
[V:2] f2g3fed | 
[V:3] z8 | 
[V:4] B,4C3B, | 
[V:1] A4B4 | 
[V:2] c2f4e2 | 
[V:3] z4z2G2 | 
[V:4] A,G,F,2G,4 | 
[V:1] A2A4G2 | 
[V:2] f4d4 | 
[V:3] A4B4 | 
[V:4] F,2D,2G,4 | 
[V:1] A4F4 | 
[V:2] z2d2c2d2 | 
[V:3] A8 | 
[V:4] D,4z2D,2 | 
[V:1] z8 | 
[V:2] B2G2z2d2 | 
[V:3] G2c2A2B2- | 
[V:4] G,2E,2F,2G,2 | 
[V:1] z8 | 
[V:2] g2e2f2g2 | 
[V:3] B2c2A2G2 | 
[V:4] E,4D,2G,2 | 
[V:1] z4z2G2 | 
[V:2] e2a4g2- | 
[V:3] z2c2d2e2 | 
[V:4] C2A,2B,2C2 | 
[V:1] c2A2B3c | 
[V:2] g2f2g2G2 | 
[V:3] c4d2g2- | 
[V:4] A,4G,4 | 
[V:1] A4G4 | 
[V:2] d4G2c2 | 
[V:3] g2^f2g4 | 
[V:4] z2D,2G,2E,2 | 
[V:1] z2d2g2e2 | 
[V:2] A2B4c2 | 
[V:3] z8 | 
[V:4] F,2G,2E,2E,2 | 
[V:1] f3ge4 | 
[V:2] A4z4 | 
[V:3] z2d2g2e2 | 
[V:4] D,4C,4 | 
[V:1] d2d4c2 | 
[V:2] z2A3Bc2 | 
[V:3] f3ge2e2 | 
[V:4] D,4A,4 | 
[V:1] d3cB2A2 | 
[V:2] BGg4f2 | 
[V:3] d8 | 
[V:4] z4z2D,2 | 
[V:1] G2c2A2B2- | 
[V:2] g4z4 | 
[V:3] z4z2d2 | 
[V:4] G,2E,2F,2G,2 | 
[V:1] B2c2A4 | 
[V:2] z4z2d2 | 
[V:3] g2e2f3g | 
[V:4] E,4D,4 | 
[V:1] z8 | 
[V:2] g2e2f3g | 
[V:3] e4d4 | 
[V:4] z4z2D,2 | 
[V:1] z4z2d2 | 
[V:2] e4d4 | 
[V:3] G2B2A2d2- | 
[V:4] G,2E,2F,2G,2 | 
[V:1] g2e2f3g | 
[V:2] z8 | 
[V:3] d2c2d4 | 
[V:4] E,4z2D,2 | 
[V:1] e4d2B2- | 
[V:2] z2g2f2d2- | 
[V:3] G2c2A2B2- | 
[V:4] G,2E,2F,2G,2 | 
[V:1] BAG4^F2 | 
[V:2] d2c2d4 | 
[V:3] B2c2A4 | 
[V:4] E,4D,4 | 
[V:1] G4z2d2- | 
[V:2] z4z2B2- | 
[V:3] G4g4 | 
[V:4] G,8 | 
[V:1] d2c4B2- | 
[V:2] B2A4G2- | 
[V:3] f4e4 | 
[V:4] z8 | 
[V:1] B2A4G2- | 
[V:2] G2F4E2- | 
[V:3] d4c4 | 
[V:4] z8 | 
[V:1] GABA/B/c2A2- | 
[V:2] EFG2AGAB | 
[V:3] B4A2c2- | 
[V:4] G,4F,4 | 
[V:1] AGG4^F2 | 
[V:2] c3B/c/d4 | 
[V:3] cBG2A4 | 
[V:4] E,4D,4 | 
[V:1] G8 | 
[V:2] z4z2g2- | 
[V:3] G4z4 | 
[V:4] D4C4 | 
[V:1] d4c4 | 
[V:2] g2f4e2- | 
[V:3] z8 | 
[V:4] B,4A,4 | 
[V:1] B4A2c2- | 
[V:2] e2defga2- | 
[V:3] z8 | 
[V:4] G,4F,4 | 
[V:1] cBG2A4 | 
[V:2] agg4^f2 | 
[V:3] z8 | 
[V:4] E,4D,4 | 
[V:1] G4z4 | 
[V:2] g2e3dd2- | 
[V:3] z8 | 
[V:4] G,4F,4 | 
[V:1] g4f4 | 
[V:2] d2^c2d4 | 
[V:3] z8 | 
[V:4] E,2E,2D,4 | 
[V:1] e2e2d4 | 
[V:2] z8 | 
[V:3] g4f4 | 
[V:4] z4D4 | 
[V:1] z8 | 
[V:2] z2g4f2- | 
[V:3] e2e2d4 | 
[V:4] C4B,2B,2 | 
[V:1] z8 | 
[V:2] f2e2d2a2- | 
[V:3] z2c2d2e2- | 
[V:4] A,4B,2C2- | 
[V:1] z2G2A2c2 | 
[V:2] a2g4^f2 | 
[V:3] edd4c2 | 
[V:4] CG,B,2A,4 | 
[V:1] B2d3cBA | 
[V:2] g4z4 | 
[V:3] d4z4 | 
[V:4] G,2D4_E2 | 
[V:1] GFB4A2 | 
[V:2] z8 | 
[V:3] G4F4 | 
[V:4] D2B,2C4 | 
[V:1] B4c2BA | 
[V:2] G4F4 | 
[V:3] G4A4 | 
[V:4] B,4A,2G,F, | 
[V:1] G2E2F2A2- | 
[V:2] G4A4 | 
[V:3] c4d4 | 
[V:4] E,4D,2F,2 | 
[V:1] AGG4^F2 | 
[V:2] c4d2f2 | 
[V:3] G4A4 | 
[V:4] E,4D,4 | 
[V:1] G8- | 
[V:2] e2d2e4 | 
[V:3] G8- | 
[V:4] G,8- | 
[V:1] G8 ||  
[V:2] d8 ||  
[V:3] G8 ||  
[V:4] G,8 ||  
[V:1]  [K:F] [K:clef=treble][M:3/1]z12 | 
[V:2]  [K:F] [K:clef=treble-8][M:3/1]g8g4 | 
[V:3]  [K:F] [K:clef=treble-8][M:3/1]z12 | 
[V:4]  [K:F] [K:clef=bass][M:3/1]G,6A,2B,2C2 | 
[V:1] z12 | 
[V:2] f4e4f4 | 
[V:3] z12 | 
[V:4] D4C4A,4 | 
[V:1] z12 | 
[V:2] d4e2g4^f2 | 
[V:3] z12 | 
[V:4] B,4C2G,2A,4 | 
[V:1] g8g4 | 
[V:2] g4d4e4 | 
[V:3] g8g4 | 
[V:4] G,6F,2E,4 | 
[V:1] f4e4f4 | 
[V:2] f4g4a4 | 
[V:3] a4g4f4 | 
[V:4] D,4z4z4 | 
[V:1] d4e2g4^f2 | 
[V:2] b4g4a4 | 
[V:3] g4e2e2d4 | 
[V:4] z12 | 
[V:1] g4z4g4 | 
[V:2] g4z4g4 | 
[V:3] z12 | 
[V:4] G,4G,4E,4 | 
[V:1] f2e2d2c2d4 | 
[V:2] a2g2f2e2d2f2 | 
[V:3] z12 | 
[V:4] D,6D,2D,4 | 
[V:1] c2B4A2B4 | 
[V:2] _e2d2c4B4 | 
[V:3] g4f2e2d2c2 | 
[V:4] _E,4F,4G,4 | 
[V:1] z4z4c4 | 
[V:2] A4G2F4E2 | 
[V:3] d4c2B4A2 | 
[V:4] F,4E,2D,2C,4 | 
[V:1] d6d2d4 | 
[V:2] F8f4 | 
[V:3] B12 | 
[V:4] B,,12 | 
[V:1] G3AB2c4B2 | 
[V:2] g6g2g4 | 
[V:3] z12 | 
[V:4] z12 | 
[V:1] c4B2A2G4 | 
[V:2] c3de2f4e2 | 
[V:3] z4z4c4 | 
[V:4] z12 | 
[V:1] F12 | 
[V:2] f6g2a4 | 
[V:3] d6d2d4 | 
[V:4] z4z4F,4 | 
[V:1] z12 | 
[V:2] g4e3fd4 | 
[V:3] G3AB2c4B2 | 
[V:4] G,6G,2G,4 | 
[V:1] G6F2G4 | 
[V:2] c4z4z4 | 
[V:3] c4B2A2G4 | 
[V:4] C,3D,E,2F,4E,2 | 
[V:1] A4c8 | 
[V:2] z4c3de2f2- | 
[V:3] F8z4 | 
[V:4] F,4z4A,4 | 
[V:1] B4A4B4 | 
[V:2] f2e2f4d4 | 
[V:3] G4F4G4 | 
[V:4] B,4C4B,4 | 
[V:1] c4A8 | 
[V:2] c4e4f4 | 
[V:3] A4c8 | 
[V:4] A,8F,4 | 
[V:1] G4c4B4 | 
[V:2] d4c4d4 | 
[V:3] B4A4B4 | 
[V:4] G,4A,4G,4 | 
[V:1] G2A4G4^F2 | 
[V:2] e4d8 | 
[V:3] c4A8 | 
[V:4] C,4D,8 | 
[V:1] G8z4 | 
[V:2] d8z4 | 
[V:3] G8z4 | 
[V:4] B,6C2D4 | 
[V:1] d4e4f4 | 
[V:2] b4g4a4 | 
[V:3] z12 | 
[V:4] G,8z4 | 
[V:1] g8z4 | 
[V:2] g8z4 | 
[V:3] d4e4f4 | 
[V:4] B,4G,4A,4 | 
[V:1] d6_e2d4 | 
[V:2] z4d6e2 | 
[V:3] g12 | 
[V:4] G,4B,4G,4 | 
[V:1] c4B6c2 | 
[V:2] f4g4G2A2 | 
[V:3] z12 | 
[V:4] A,4G,8 | 
[V:1] d2e2f4e4 | 
[V:2] B2c2A2F2c4 | 
[V:3] g4a4g4 | 
[V:4] z12 | 
[V:1] d2e4d4^c2 | 
[V:2] d2c2B4A4 | 
[V:3] f2g2d4e4 | 
[V:4] z12 | 
[V:1] d4z4z4 | 
[V:2] B4c4B4 | 
[V:3] d4f4e4 | 
[V:4] G,4A,4G,4 | 
[V:1] z12 | 
[V:2] A2B4A4G2 | 
[V:3] d2e4d4^c2 | 
[V:4] F,2G,2D,4E,4 | 
[V:1] [M:2/1]z8 | 
[V:2] [M:2/1]A2d3efg | 
[V:3] [M:2/1]d4D3E | 
[V:4] [M:2/1]D,4z2D,2- | 
[V:1] z8 | 
[V:2] a4z4 | 
[V:3] FGABc2d2 | 
[V:4] D,E,F,G,A,2B,2 | 
[V:1] z8 | 
[V:2] z8 | 
[V:3] e2f2g2a2- | 
[V:4] C2D2EDCB, | 
[V:1] z8 | 
[V:2] z8 | 
[V:3] agg4^f2 | 
[V:4] C2G,2A,4 | 
[V:1] z4d4 | 
[V:2] z4g4 | 
[V:3] g8 | 
[V:4] G,8 | 
[V:1] c2A2B3c | 
[V:2] a2f2g4 | 
[V:3] z4d4 | 
[V:4] z4G,4 | 
[V:1] A4G4 | 
[V:2] e2f2d4 | 
[V:3] c2A2B3c | 
[V:4] A,2F,2G,4 | 
[V:1] A2F2G4 | 
[V:2] z4z2d2 | 
[V:3] A4G4 | 
[V:4] D,4z4 | 
[V:1] z8 | 
[V:2] c2A2B3c | 
[V:3] A2F2G4 | 
[V:4] z4z2D2 | 
[V:1] z4z2d2 | 
[V:2] A4G2g2- | 
[V:3] z8 | 
[V:4] C2A,2B,3C | 
[V:1] c2A2B3c | 
[V:2] g2f2g4 | 
[V:3] z4z2d2 | 
[V:4] A,2A,2G,4 | 
[V:1] A4G2A2- | 
[V:2] z2d2e2f2 | 
[V:3] c2A2B2c2 | 
[V:4] A,2F,2G,2F,2 | 
[V:1] A2G4^F2 | 
[V:2] g2c2d2f2 | 
[V:3] G4A4 | 
[V:4] E,4D,4 | 
[V:1] G8 | 
[V:2] e4d4 | 
[V:3] z2G2B3c | 
[V:4] z4z2G,2 | 
[V:1] z2G2B3c | 
[V:2] G8- | 
[V:3] d4z2G2 | 
[V:4] B,3CD4 | 
[V:1] d4z2G2 | 
[V:2] G8 | 
[V:3] B3cd2G2 | 
[V:4] z2G,2B,3C | 
[V:1] B3cd4 | 
[V:2] z4z2d2 | 
[V:3] z2g4f2 | 
[V:4] D2G,2z2D2- | 
[V:1] z4z2d2- | 
[V:2] e4f2g2 | 
[V:3] e2c2d4 | 
[V:4] D2C2B,2G,2 | 
[V:1] d2c2B2AG | 
[V:2] e4d4 | 
[V:3] z4z2d2- | 
[V:4] A,4z4 | 
[V:1] A4z4 | 
[V:2] z2e2f2e2- | 
[V:3] d2c2B2G2 | 
[V:4] z2A,4G,2 | 
[V:1] z2A3FG2 | 
[V:2] edd4^c2 | 
[V:3] A4z4 | 
[V:4] F,2D,2E,4 | 
[V:1] F3E/D/EDA2- | 
[V:2] d4z2A2 | 
[V:3] z2d4c2 | 
[V:4] D,2F,2G,2A,2 | 
[V:1] A2G4^F2 | 
[V:2] B2c2d4 | 
[V:3] B2G2A4 | 
[V:4] D,2E,2D,4 | 
[V:1] G2d2c2B2 | 
[V:2] z2b2a2g2 | 
[V:3] G2B2f2g2 | 
[V:4] z8 | 
[V:1] A2G2A4 | 
[V:2] f2e2f4 | 
[V:3] d2e2d4 | 
[V:4] z8 | 
[V:1] z2d2c2B2 | 
[V:2] z2b2a2g2 | 
[V:3] z2B2f2g2 | 
[V:4] z8 | 
[V:1] A2G2A4 | 
[V:2] fdg4^f2 | 
[V:3] d2e2d4 | 
[V:4] z8 | 
[V:1] G2B2A2G2 | 
[V:2] g2f4e2 | 
[V:3] G2d2c2B2 | 
[V:4] z2B,,2F,2G,2 | 
[V:1] F2E2F4 | 
[V:2] d2c2d4 | 
[V:3] A2G2A4 | 
[V:4] D,2E,2D,4 | 
[V:1] z2B2A2G2 | 
[V:2] z2f4e2 | 
[V:3] z2d2c2B2 | 
[V:4] z2B,,2F,2G,2 | 
[V:1] FDG4^F2 | 
[V:2] d2c2d4 | 
[V:3] A2G2A4 | 
[V:4] D,2E,2D,4 | 
[V:1] G8 |]  
[V:2] d8 |]  
[V:3] G8 |]  
[V:4] G,8 |]  



